/* XPM */
static char *xpm_[] = {
/* columns rows colors chars-per-pixel */
"64 64 99 2 ",
"   c #000000",
".  c #0C0C0C",
"X  c #131313",
"o  c #1B1B1B",
"O  c #242424",
"+  c #2F2F2F",
"@  c #353535",
"#  c #3B3B3B",
"$  c #444444",
"%  c #4D4D4D",
"&  c gray34",
"*  c #5A5A5A",
"=  c #646464",
"-  c #6D6D6D",
";  c gray45",
":  c #7B7B7B",
">  c #BA131A",
",  c #BA181E",
"<  c #BB1B22",
"1  c #BD2127",
"2  c #BE252B",
"3  c #BF282F",
"4  c #C02C32",
"5  c #C13036",
"6  c #C3353B",
"7  c #C3393F",
"8  c #C53E44",
"9  c #C64146",
"0  c #C74449",
"q  c #C8474D",
"w  c #CA4E53",
"e  c #CB5156",
"r  c #CC5459",
"t  c #CD595D",
"y  c #CE5D62",
"u  c #D06267",
"i  c #D1676C",
"p  c #D26B6F",
"a  c #D36D71",
"s  c #D47175",
"d  c #D57579",
"f  c #D77A7E",
"g  c #D87E82",
"h  c #848484",
"j  c #8D8D8D",
"k  c #949494",
"l  c #999999",
"z  c #A2A2A2",
"x  c #AAAAAA",
"c  c #B3B3B3",
"v  c #BDBDBD",
"b  c #D88184",
"n  c #DB878A",
"m  c #DB8A8D",
"M  c #DE9295",
"N  c #DF9699",
"B  c #E09B9D",
"V  c #E19EA1",
"C  c #E3A2A5",
"Z  c #E4A7A9",
"A  c #E5AAAC",
"S  c #E6AEB0",
"D  c #E7B2B4",
"F  c #E8B5B7",
"G  c #EABBBC",
"H  c #C6C6C6",
"J  c #CCCCCC",
"K  c #D4D4D4",
"L  c #D9D7D7",
"P  c #DCDBDB",
"I  c #ECC2C4",
"U  c #EDC7C8",
"Y  c #EECBCC",
"T  c #EFD0D1",
"R  c #F0D1D2",
"E  c #F2DBDB",
"W  c #F4DFE0",
"Q  c #E5E3E3",
"!  c #E9E2E2",
"~  c #EAE5E5",
"^  c #ECE4E5",
"/  c #EFE4E4",
"(  c #EFE7E7",
")  c #EDEAEA",
"_  c #F1E2E3",
"`  c #F5E2E3",
"'  c #F6E6E6",
"]  c #F7E8E8",
"[  c #F5EBEB",
"{  c #F3EFEF",
"}  c #F8EAEB",
"|  c #F8EBEB",
" . c #F9EEEE",
".. c #F4F3F3",
"X. c gray97",
"o. c #FCF7F7",
"O. c #FCF7F8",
"+. c #FDFAFB",
"@. c #FCFBFB",
/* pixels */
"                                                                                                                                ",
"                                                                                                                                ",
"                                                                                                                                ",
"                                                                                                                                ",
"                                                                                                                                ",
"                                                                                                                                ",
"                                                                                                                                ",
"                                                                                                                                ",
"                                                                                                                                ",
"                                                                                                                                ",
"                                                                                                                                ",
"                                                                                                                                ",
"                                                                                                                                ",
"                                                                    O ; h h : @                                                 ",
"                                                                : ~ T m m n m I ..:                                             ",
"                                                            @ P V 4 > > > > > > 4 Z J o                                         ",
"                                                          # ' w > > > > > > > > > > p K .                                       ",
"                                                        . P 0 > > > > > > > > > > > > M j                                       ",
"                                              o ; x H J J B > > > > > > > > > > > > > < ' .                                     ",
"                                            h [ m y 7 7 +.8 > > > > > > > > > > > > > > C v l j % .                             ",
"                                          x D < > > > 0 | > > > > > > > 4 8 > > > > > > 9 i i f D Q =                           ",
"                                        - G > > > > > y } > > > > > > > 9 Z > > > > > > > > > > > 5 I x                         ",
"                                      . Q 3 > > > > > e o.> > > > > > > , } > > > > > > > > > > > > > Z z                       ",
"                                      & Z > > > > > > 1 o.y > > > > > > > E < > > > > > > > > > > > > , Y &                     ",
"                                      z y > > > > > > > B ` 4 > > > > > 4 +.> > > > > > > > > > > > > > 8 Q                     ",
"                                      L 4 > > > > > > > < I } u > > > 4 Y C > > > > > > > > > > > > > > > S *                   ",
"                                      ^ > > > > > > > > > , g | } S D | B , > > > > > > > > > > > > > > > e x                   ",
"                                o : k E > > > > > > > > > > > > 7 u r < > > > > > > > > > > > > > > > > > < X.                  ",
"                            . z | m a r > > > > > > > > > > > > > > > > > > > > > > > > > > > > > > > > > > E .                 ",
"                          @ P n , > > > > > > > > > > > > > > > > > > > > > > > > > > > > > > > > > > > > > A @                 ",
"        O $             % ^ e > > > > > > > > > > > > > > > > > > > > > > > > > > > 0 G ` D , > > > > > > > V $                 ",
"          Q c +     . h E 7 > > > > > > > > > > > > > > > > > > > > > > > > > > > 0 [ e 3 t < > > > > > > > S +                 ",
"          k G E K v _ B 4 > > > > > > > > > > > > > , > > > > > > > > > > > > > > R d > > > > > > > > > > > _ .                 ",
"          @ U > 4 0 , > > > > > > > > > > > > > > > > > > > > > > > > , > > > > 7 [ > > > > > > > > > > > < ..                  ",
"            L 8 > > > > > > > > > > > > > > > > > > > > > > > > > > > > > > > > d C > > > > > > > > > > > p l                   ",
"            ; B > > > > > > > > > > > 8 M [ +.R d > > > > > > > > > > > > > > > d B > > > > > > > > > > > U $                   ",
"            . ) 4 > > > > > > > > > g R s 1 < < b G > > > > > > > > > > > > > > p C > > > > > > > > > > y v                     ",
"              ; A > > > > > > > > r Y < > > , > > Z q > > > > > > > > > > > > > 1 [ < > > > > > > > > 0 _ O                     ",
"              . J y > > > > > > > F t > > > > > > 8 s > > > > > > > > > > > > > > Z V > > > > > > > s ~ #                       ",
"                O ! w > > > > > > ] 4 > > > > > > > > > > > > > > > > > > > > > , < U G 9 , > 3 a R c O                         ",
"                  + Q g , > > > > E 6 > > > > > > > > > > > > > > > > > > > > > > > > a +.{ { Q l #                             ",
"                    o l [ B n n n E s > > > > > > > > > > > > > > > > > > > > > > > > 8 J                                       ",
"                        . - h h h j I > > > > > > > > > > > > > , > > > > > > > > > > V -                                       ",
"                                    J e > > > > > > > > > > B n > > > > > > > > > > u K .                                       ",
"                                    # W 4 > > > > > > > 2 I x L s > > > > > > > , m L O                                         ",
"                                      = E w > > > > < s _ ;   o v Y s 8 4 6 e B _ k X                                           ",
"                                        $ H _ F A G [ z O         $ j J E K x - o                                               ",
"                                            X $ & # .                                                                           ",
"                                                                                                                                ",
"                                                                                                                                ",
"                                                                                                                                ",
"                                                                                                                                ",
"                                                                                                                                ",
"                                                                                                                                ",
"                                                                                                                                ",
"                                                                                                                                ",
"                                                                                                                                ",
"                                                                                                                                ",
"                                                                                                                                ",
"                                                                                                                                ",
"                                                                                                                                ",
"                                                                                                                                ",
"                                                                                                                                ",
"                                                                                                                                "
};
