/* XPM */
static char *xpm_[] = {
/* columns rows colors chars-per-pixel */
"64 64 49 1 ",
"  c black",
". c #050000",
"X c #0B0000",
"o c #0C0000",
"O c #100000",
"+ c #160000",
"@ c #180000",
"# c #1D0000",
"$ c #230000",
"% c #270000",
"& c #2A0000",
"* c #2C0000",
"= c #310000",
"- c #360000",
"; c #3B0000",
": c #3D0000",
"> c #400000",
", c #460000",
"< c #4B0000",
"1 c #4E0000",
"2 c #500000",
"3 c #560000",
"4 c #580000",
"5 c #5F0000",
"6 c #620000",
"7 c #660000",
"8 c #6A0000",
"9 c #6F0000",
"0 c #730000",
"q c #740000",
"w c #7A0000",
"e c #7D0000",
"r c #830000",
"t c #860000",
"y c #890000",
"u c #8D0000",
"i c #920000",
"p c #960000",
"a c #990000",
"s c #9D0000",
"d c #A20000",
"f c #A70000",
"g c #AA0000",
"h c #AE0000",
"j c #B10000",
"k c #B40000",
"l c #BB0000",
"z c #BE0000",
"x c #C00000",
/* pixels */
"                                                                ",
"                                                                ",
"                                                                ",
"                                                                ",
"                                                                ",
"                                                                ",
"                          @>60wrr787<%.                         ",
"                      .-8ifffffq%8sfffaq<o                      ",
"                    O2iffgghhguX*ahghgggfa7#                    ",
"                  X1sfggghhjjg1  %fjjjhhggff7+                  ",
"                 &ufgghjjae736*  .636qihhhggfd,.                ",
"               .4dgghhgw4rhllza+o8zzzju58djhggfqO               ",
"              Xqfggjh98dlzzzzzxkjzxxxzzzhw4fjhgfi#              ",
"             Xrfghjy6dzzzxzllkkkkkkklzzzzzh09jhggp%             ",
"            Xrfghj8elzzzzkjjhgggggghhjklzzzzp5ghhfp$            ",
"           .0gghg6slzzlkjgffddfdffddffhhklzzlj5shgfiO           ",
"           3fghh5gzzzkjhgddiq9756670yddfghkzzzl5shgfeX          ",
"          &fggj6glzzkhgdse38ajkjjkjfq29adfhjlzzl5fhgf2          ",
"         Xifhj8azxljgfdt3ujklzlzzzzlljs50sfgjlzzj5jhgd$         ",
"         <fghyezzlkhfd6wjkzzzzzzzjkzzzlji3adgjlzzd6hhfw         ",
"        Osghj6lzzkgfs4pklzxzlklu*9hlzzzzkf3idgjzzzeahgf-        ",
"        2fgj9dzxuhfd4skzzzlkkjpo=fhjjllzzlh4adhjzzk4jhfw        ",
"       .ighg7zxz<fw1pkzzzkjhhh3  *ghhjklzzlg,3<9jzzuihgf$       ",
"       -gghwdzxk&:  7zzlkjhge6$  .4qshjkkzzpX  ,1jzl4jhf6       ",
"       8fgj4lzlj4   &xlkjhu3akuOX5lg5wghklz8   uhkzzqdhfu       ",
"       igharzzkhs%  7lkjheqklzxjfzzzlu6ghkliX +agjzzgehgg#      ",
"      @fgjehzzjgf3yizljhiqllxzljjkzzzkp9hjkzsr2pfhlxz6jhf1      ",
"      >fhj7lzljdu8kzzkhf3kzzkhggfghkzzl9phklzkswdhkzz4hhf0      ",
"      5fgj3lxlhfwalzljhealzlgfsaaadgkzzk7gjlzzj7dgkzzqahft      ",
"      0ghg5zzkgd9jlzljh6kzljfpu86tpdhkzl5dhkzzk5fgjzzpyhgi.     ",
"      efhs9zzkhd6kzzkjf4lzlgai;  #rafjzltrhklzk4sfjzzhehga.     ",
"      rfhpwzzkgf5kzlkja7lzjfa8    <ifhzzfqhklzk5afjzzkwhgsX     ",
"      rghpwzzkff6klzkhp9lxjfa6    :pdjzzf0gklzk5afjlxkwhgsX     ",
"      efha0zzkgd6jzzlhd4lxkgay#  Xqafjzlirhkzzk5sfjzzjehgaX     ",
"      qghf6zxkgf8jlzlhh3ejlhdat,:qpsgklt3ajkzzj4fgjzzsrhgi.     ",
"      7fhh3zzlhd0flzljs+ +hkgdapppsgjl:  0jkzlk7dgkzzeihgy      ",
"      <fgj6lxlhdtqlzuaw   uzkhfddfgjzhX  Xflzlf0dgkxz5ghfw      ",
"      %fgjwjzljgd2jzz>@  ofzxkjjjjkzzk% .Oelzk8ufhlxl5jhf4      ",
"       aghiizzkgd0slzlt254ilzzzzzzzzlg20y4tzlh3dgkzzjwhgf&      ",
"       qfhg5zxljfa4kzxlkhg99jllzzllky4fhj0jxketdgkzztphga.      ",
"       ,ggj8jzzjgd0ikzzkjjgp74ydfi75tghjlkzlg3dgjlzl4hhf9       ",
"       oagha=;ilhfs3flzzlkjhhdtqqeahhjjlzzlj4pdhkh<;9hgf-       ",
"        7ah2  #zkhfa4hlzzlljjhhhhhhjjklzzlj9rdgjz2  oafu.       ",
"        $58=  Ozzjgdi4gkzzzllkkkjkkllzzzlj0qdgjlx>.  4f<        ",
"         73OXO7zzljgdp2aklzzzzlzzlzzzzlkf4rsghkxzuO@2:p.        ",
"         +ddsh5hzzljgfs88gkllzlr9kzzlkhr3adgjkzzz7gha5-         ",
"          ,gghg5lzzljhfdi65ajk7  -jkf83tddgjlzxz9ihga5          ",
"           qfghs5lzzlkhgddp075@  .369uddfhjlzzz0tjggp+          ",
"           Oighha6jzzzkkhgfddfqX @dfdfghjklzzl9tjggs&           ",
"            @pgghf5dlzzzljhhggfuo0fggjjkzxzzj7ijhgd>            ",
"             %pgghj7ekzzxzlkkkd<0jjkklzzzzli4ghhgd<             ",
"              $ifghha4ulzzxxxzkzzzzzxxxzzs5rjhgfs>              ",
"               Oefghhhi50gllzzzzzzzzlljt4ehjhgfp&               ",
"                X2dfghhjsr64qahkkjsr55qpjhhgff0O                ",
"                  $effgghhjhayewwetifjhhhggfi-                  ",
"                    =wfffghhhhhhhhhhhhggfgy,X                   ",
"                      %6uffgggggggggfffp0=.                     ",
"                         @10riaasapyq5&                         ",
"                             .XXoX.                             ",
"                                                                ",
"                                                                ",
"                                                                ",
"                                                                ",
"                                                                "
};
