/* XPM */
static char *xpm_[] = {
/* columns rows colors chars-per-pixel */
"64 64 214 2 ",
"   c #000000",
".  c #0A0505",
"X  c #070708",
"o  c #0E0708",
"O  c #070809",
"+  c #0B0A0B",
"@  c #100708",
"#  c #130A0B",
"$  c #1C0B0D",
"%  c #0E0E10",
"&  c #0F1014",
"*  c #121214",
"=  c #181010",
"-  c #1B1415",
";  c #15161A",
":  c #18171D",
">  c #17181C",
",  c #1A1A1E",
"<  c #250D0E",
"1  c #260F11",
"2  c #271316",
"3  c #2C1215",
"4  c #2D1719",
"5  c #341415",
"6  c #3D1415",
"7  c #351619",
"8  c #3C191D",
"9  c #1C1D24",
"0  c #271E26",
"q  c #331C23",
"w  c #1F2122",
"e  c #2B2624",
"r  c #23242D",
"t  c #292728",
"y  c #35242C",
"u  c #35292C",
"i  c #252632",
"p  c #2A2735",
"a  c #262832",
"s  c #2A2A35",
"d  c #2C2D3A",
"f  c #312C32",
"g  c #372937",
"h  c #322B3C",
"j  c #3C3336",
"k  c #33313D",
"l  c #3A3539",
"z  c #3D3A3D",
"x  c #43171A",
"c  c #4B1A1C",
"v  c #571C1E",
"b  c #441C20",
"n  c #4A1E23",
"m  c #501E22",
"M  c #621E20",
"N  c #691F21",
"B  c #44232D",
"V  c #492329",
"C  c #542529",
"Z  c #5A2429",
"A  c #4D2A34",
"S  c #473634",
"D  c #4B3332",
"F  c #423E3D",
"G  c #563436",
"H  c #6A2527",
"J  c #64252B",
"K  c #6C2A2E",
"L  c #782628",
"P  c #6A2C36",
"I  c #7C2F35",
"U  c #653739",
"Y  c #76393B",
"T  c #71403E",
"R  c #2E2F42",
"E  c #302E40",
"W  c #2F3045",
"Q  c #323145",
"!  c #393545",
"~  c #3C384A",
"^  c #3F3A51",
"/  c #433E43",
"(  c #483B47",
")  c #533D40",
"_  c #413C52",
"`  c #662D4F",
"'  c #763942",
"]  c #693855",
"[  c #454245",
"{  c #4A4344",
"}  c #44424C",
"|  c #4C494C",
" . c #574648",
".. c #484756",
"X. c #584B52",
"o. c #5A5458",
"O. c #664946",
"+. c #784848",
"@. c #68524E",
"#. c #7B504C",
"$. c #675454",
"%. c #69595C",
"&. c #775C56",
"*. c #72635D",
"=. c #595964",
"-. c #6F5E6B",
";. c #696469",
":. c #73626D",
">. c #7E686A",
",. c #7C746D",
"<. c #686872",
"1. c #766873",
"2. c #72717A",
"3. c #7B737C",
"4. c #7C787F",
"5. c #83272A",
"6. c #8B292B",
"7. c #972C2F",
"8. c #842D34",
"9. c #892D30",
"0. c #88343C",
"q. c #9B373A",
"w. c #A42E32",
"e. c #A23436",
"r. c #AC3134",
"t. c #B43235",
"y. c #B83336",
"u. c #913640",
"i. c #953A44",
"p. c #993944",
"a. c #93484C",
"s. c #905858",
"d. c #86645B",
"f. c #98655D",
"g. c #A1615E",
"h. c #876C66",
"j. c #8C6D65",
"k. c #946B67",
"l. c #98756A",
"z. c #846E78",
"x. c #857378",
"c. c #9D7D73",
"v. c #987A76",
"b. c #A36B6C",
"n. c #A1726A",
"m. c #A4796C",
"M. c #AC7C6F",
"N. c #A47C75",
"B. c #B37B76",
"V. c #8A8578",
"C. c #98887E",
"Z. c #A68579",
"A. c #B28274",
"S. c #B8877A",
"D. c #B38B7C",
"F. c #7C7B82",
"G. c #827B85",
"H. c #8D7885",
"J. c #86858C",
"K. c #8B838D",
"L. c #968686",
"P. c #8D8A92",
"I. c #928B95",
"U. c #958E99",
"Y. c #96919A",
"T. c #9B949E",
"R. c #9B9B9F",
"E. c #A38881",
"W. c #B88F81",
"Q. c #A7988B",
"!. c #BC9484",
"~. c #BA968B",
"^. c #ACA695",
"/. c #BAA298",
"(. c #9D97A1",
"). c #9E98A2",
"_. c #A29CA6",
"`. c #A59FA9",
"'. c #A6A0AA",
"]. c #A8A0AA",
"[. c #A9A4A8",
"{. c #BDB7A3",
"}. c #A7ABB1",
"|. c #B7B7B8",
" X c #B3B5BC",
".X c #CC958D",
"XX c #C49C8B",
"oX c #CA9D8B",
"OX c #C69E91",
"+X c #CCA18F",
"@X c #CDA394",
"#X c #C7A99C",
"$X c #D3A693",
"%X c #D6A895",
"&X c #D6A997",
"*X c #DAAA97",
"=X c #DDAD9A",
"-X c #E2AF9D",
";X c #E3B29E",
":X c #C3B5A9",
">X c #CFB3A9",
",X c #E6B4A0",
"<X c #E9B6A1",
"1X c #EEBAA5",
"2X c #EBBCA9",
"3X c #F2BDA7",
"4X c #DCD5BF",
"5X c #ECC6B5",
"6X c #C8C7C6",
"7X c #CBCBCB",
"8X c #D3CAC4",
"9X c #D4D5D4",
"0X c #DADADA",
"qX c #F0D4C8",
/* pixels */
"                                                                                                                                ",
"                                                                                                                                ",
"                                                                                                                                ",
"                                                                                                                                ",
"                                                                                                                                ",
"                                                                                        @                                       ",
"                                                                                    X <.%.                                      ",
"                                                                                  X +. X}.w O                                   ",
"                                                                                  $ v. XT.8.Y u +                               ",
"                                                                                  $ z.Y.1.t.y.r.P e                             ",
"                                                                                  % P.P.j H r.y.y.e.D &                         ",
"                                                      + s o.2.3.;./ +           . a. X X[ ; @ v w.y.t.Y -                       ",
"                                                  X | U.`.`.`.`.'.'.T.o.&       < k.'.'.I s.{ % @ M r.y.0.-                     ",
"                                                ; 4.'.'.`.].].'.'.`.`.'.J.t     $ :.1.1.w.t.t.Y u O < 6.t.6.+                   ",
"                                              * G.`.'.'.`.`.`.`.(.].'.`.`.Y.t   o ;.z.j 5.t.t.y.q.G % . N t.L .                 ",
"                                            . <.'.].`._.`.(.`.T.).'.U.`.'.`.G.# '  X Xl + 3 L r.y.r.U O   c r.H                 ",
"                                            t )._.U._.(._.).(.P._.T._.(.I.T._.) k. X].'  .9   3 5.t.t.m     6 w.x               ",
"                                            ;.'.].`.U.(.I._.U.K.`._.I.U.`.`.`.1.>.K.H.w.t.q.D o . x w.r.c     6 6.@             ",
"                                          X F.U.x.3.P.(.U.U.U.G.].I.K.L.L.L.H.F.G ' ) 7.t.y.r.G +   $ 5.t.<     x v             ",
"                                          * P.`.~.=XOXv.L.1.Y.3.L.~.&X-X1X%X<.2.I N   . 6 L t.t.Z     . H 7..     x $           ",
"                                          ; P.3.@X1X1X1X1XoXL.c.&X1X1X1X1X-X:.-.q.x         < 5.y.c       H c       #           ",
"                                          * 3.(.@X1X1X1X1X1X1X1X1X1X1X1X1X,X1.:.e.$           . M r.<       v o                 ",
"                                          * I.`.OX1X1X1X1X1X1X1X1X1X1X1X1X,X1.:.9.o             . M L         #                 ",
"                                          + K.T.OX1X1X1X1X1X1X1X1X1X1X1X<X1Xv.:.K                   v $                         ",
"                                          u L.~.3X*X$X1X1X1X1X1X1X1X$XXX-X1XOXv.d.#                 . #                         ",
"                                          d.j.@X1X%XN.l.XX,X1X1XoXc.k.N.!.,X@Xd.M.K .                                           ",
"                                        8 b.d.$X;XQ.` ` >.oX1X1X*X/.] ] 3.2X*Xk.B.q.b                                           ",
"                                      $ 0.g.m.%X2X8X] ] 8X1X1X1X1XqXH.] [.3X+XM.k.i.u.o                                         ",
"                                      Z p.a.S.!.1X=X:X:X5X1X1X1X1X3X>X#X$X1XoXS.i.p.u.o                                         ",
"                                      7 p.p.a.D.1X2X1X1X1X1X1X1X1X1X1X1X1X1Xn.K 8.u.2                                           ",
"                                      * A p.I K %X1X1X1X1X1X<X<X1X1X1X1X1X;XP J J 4 * %                                         ",
"                                      a d A K J f.1X1X1X1X1X-XoX1X1X$X1X1XXXs.J 2 % s 9                                         ",
"                                    & d d s B J Z c.1X5X-X=X+X!.B.b.,X1XXXC.j.7 + w W a ; X                                     ",
"                                    a d d r a b H f j.;X,X=X=X;X.X.X1XW.{ :XO.+ ; d a w d ;                                     ",
"                                  , d d d w & + c u d X.XX1X1X1X2X;Xh.%.D.=XO.O 9 w w a & * *                                   ",
"                                + d a w > w > O - C k d o.x.C.L.Z.3.~ XX;X1X%Xe w ; a > w w 9                                   ",
"                                w d w 9 , * * + O 3 d.l =.<.=.o.<.2.| $X<X1X1XA.D f s s s i 9 %                                 ",
"                                s d d d k d a % O + D m.&.@.o.o.| @.#.%X;X5X;X3X;Xh.d d d d d w                                 ",
"                                a d d d d d d a ; + # +.A.n.m.m.l.A.A.T Q.=X5X3X5Xm.d d d d d s +                               ",
"                                % a d d d d d @.#.o + 5 +.M.k.l.A.l.T @.^.4 l.Z.D.j.d d d d d w X                               ",
"                                a * 9 d d d F XX1Xl.. + c U *.$.T H 3 V.V.O w W g Z s d d r + O                                 ",
"                                w W O ; d d @.*X1X5XS . # 3 S F - # O {.o.% W d g J y d r + +                                   ",
"                                + ..& % 9 f Z !.1X1XD.. + O = = O + - 8Xa w d W d C C r + +                                     ",
"                                & d a O # V y W.1X1X<XD O o 3 # O + F :X& d a W W g u & + X                                     ",
"                                ; q R 9 4 h R h.1X1X<Xc.X o 1 # + O ,.V.w d Q Q W d ( - 9                                       ",
"                                9 b y W d W Q Q @X=XoXZ.X # q 2 + O ^.%.d d Q Q W z f 8 a                                       ",
"                                r c B g } ..=.<.oXoXoXj.2 q p E q 4 D.o.W ~ W W k | s c s X                                     ",
"                              + p n J J z.9X0X7XL.$.X.! W W p Q l L t.j _ 6X XR.| j n C s O                                     ",
"                              * p C H J U 7X0X0X7X^ W W R W R Q h G H g 2.0X0X7Xo.B b 8 s %                                     ",
"                              ; p $ $ 5 V =.2. X0X%.C B V B y B V { D V |.9XP...F ;   $ r                                       ",
"                                , @     0 ^ _ ..7X<.y 8 n C Z m 8 F u e P.|.^ ~ [ ! : X X                                       ",
"                                O o # p ~ ^ ^ ^ P.F.!             F z k J.J.! [ ~ ^  .F =                                       ",
"                                  + d.D.h._ ^ _ =.F.Q +           t [ ! G...| z ~ Z.Z.D.j                                       ",
"                                  : ~ h.Z.$.! ! ~ =.d +           + { | [ F [ k ! v.&./ d                                       ",
"                                  + p d ! p r : % +                 % t l f * : 0 d h h *                                       ",
"                                      . .                                                                                       ",
"                                                                                                                                ",
"                                                                                                                                ",
"                                                                                                                                ",
"                                                                                                                                ",
"                                                                                                                                ",
"                                                                                                                                ",
"                                                                                                                                ",
"                                                                                                                                "
};
