/* XPM */
static char *xpm_[] = {
/* columns rows colors chars-per-pixel */
"64 64 219 2 ",
"   c #010101",
".  c #060808",
"X  c #0B0C0C",
"o  c #090203",
"O  c #0D1212",
"+  c #121413",
"@  c #151A19",
"#  c #1B1C1D",
"$  c #121816",
"%  c #140F10",
"&  c #1C211F",
"*  c #181E27",
"=  c #1A1F29",
"-  c #171C26",
";  c #1C2424",
":  c #1C232B",
">  c #1A2927",
",  c #21272D",
"<  c #252A2A",
"1  c #2B2E2D",
"2  c #222627",
"3  c #242D33",
"4  c #263135",
"5  c #2A3235",
"6  c #2C363A",
"7  c #2D393D",
"8  c #313A3D",
"9  c #3B3E3E",
"0  c #313434",
"q  c #36222E",
"w  c #26191B",
"e  c #4C0B10",
"r  c #600206",
"t  c #46292D",
"y  c #7F373B",
"u  c #3A403E",
"i  c #34413E",
"p  c #2C3B41",
"a  c #343E41",
"s  c #3B3F41",
"d  c #354244",
"f  c #3B4345",
"g  c #364749",
"h  c #3C4649",
"j  c #3D494B",
"k  c #39494B",
"l  c #3B4E51",
"z  c #3E5355",
"x  c #3F524F",
"c  c #424544",
"v  c #414946",
"b  c #434C4C",
"n  c #4B4D4C",
"m  c #454848",
"M  c #49514E",
"N  c #45514E",
"B  c #444E51",
"V  c #4B4C53",
"C  c #4B4C59",
"Z  c #455353",
"A  c #4C5453",
"S  c #4E5956",
"D  c #4E555A",
"F  c #465B5C",
"G  c #4A5D5D",
"H  c #445858",
"J  c #525654",
"K  c #515956",
"L  c #52535C",
"P  c #535C5A",
"I  c #5A5D5C",
"U  c #51524F",
"Y  c #625F5F",
"T  c #55615E",
"R  c #5A625E",
"E  c #60615E",
"W  c #4B5D62",
"Q  c #545E62",
"!  c #5A5A64",
"~  c #625E6C",
"^  c #4B6262",
"/  c #4C6668",
"(  c #566463",
")  c #5B6563",
"_  c #5E6966",
"`  c #546B6B",
"'  c #5C6C6B",
"]  c #586867",
"[  c #5A706E",
"{  c #5B7473",
"}  c #5B787A",
"|  c #626362",
" . c #636D6B",
".. c #6B6C6C",
"X. c #626966",
"o. c #65716E",
"O. c #69736F",
"+. c #656D70",
"@. c #696A72",
"#. c #657372",
"$. c #6A7573",
"%. c #6D7976",
"&. c #6F7678",
"*. c #637B7B",
"=. c #6D7A79",
"-. c #63767A",
";. c #727574",
":. c #737976",
">. c #74757B",
",. c #727D7B",
"<. c #7B7C7C",
"1. c #70716E",
"2. c #8E070E",
"3. c #AD060F",
"4. c #934A53",
"5. c #B45866",
"6. c #C2595F",
"7. c #D8757C",
"8. c #69817F",
"9. c #75817D",
"0. c #7E807F",
"q. c #767E81",
"w. c #7C7A82",
"e. c #6E7788",
"r. c #6C8283",
"t. c #6A898D",
"y. c #738483",
"u. c #7B8583",
"i. c #7D8A86",
"p. c #748B8B",
"a. c #7D8D8A",
"s. c #788F90",
"d. c #749194",
"f. c #7C9393",
"g. c #7B9799",
"h. c #7D9B9D",
"j. c #76979B",
"k. c #6E8E94",
"l. c #7C9EA2",
"z. c #7EA2A6",
"x. c #838584",
"c. c #838D8B",
"v. c #8B8C8B",
"b. c #82878A",
"n. c #85918E",
"m. c #89928F",
"M. c #859492",
"N. c #8A9592",
"B. c #8C9995",
"V. c #8E9C99",
"C. c #839B9C",
"Z. c #939594",
"A. c #939D9B",
"S. c #9A9D9C",
"D. c #95969A",
"F. c #908F96",
"G. c #94A29E",
"H. c #9DA09F",
"J. c #A0A09F",
"K. c #889EA2",
"L. c #83A2A4",
"P. c #82A6AA",
"I. c #8AABAD",
"U. c #88A6A8",
"Y. c #97A5A1",
"T. c #9BA6A3",
"R. c #9DAAA5",
"E. c #9EACA8",
"W. c #8BAEB0",
"Q. c #8DB1B4",
"!. c #92B6B9",
"~. c #97BCBE",
"^. c #A3A4A3",
"/. c #A2ADAA",
"(. c #ACADAB",
"). c #A4A7A8",
"_. c #A4B2AE",
"`. c #AAB0AF",
"'. c #A6B4B1",
"]. c #ACB4B3",
"[. c #AEBCB8",
"{. c #AEBDB7",
"}. c #B3B4B3",
"|. c #B5B5BA",
" X c #B5BCBA",
".X c #BCBCBC",
"XX c #B8B8B7",
"oX c #B0AFB3",
"OX c #B6C0BD",
"+X c #99BFC1",
"@X c #BDC3C2",
"#X c #B9C7C4",
"$X c #A9C5CB",
"%X c #C3C4C4",
"&X c #C5CAC9",
"*X c #CBCCCC",
"=X c #C4C6C8",
"-X c #C9D1CF",
";X c #CFCED0",
":X c #CCD5D5",
">X c #D5D5D6",
",X c #D2D3D3",
"<X c #D5DADA",
"1X c #D9D9DA",
"2X c #DCDCDD",
"3X c #D2D8D7",
"4X c #E8D0D3",
"5X c #DDDDE0",
"6X c #DCE0E0",
"7X c #E3E3E4",
"8X c #E7E7E9",
"9X c #E5EBEA",
"0X c #EBEBEC",
"qX c #EFEFF0",
"wX c #EDF1F1",
"eX c #F2F3F3",
"rX c #FCFBFF",
"tX c None",
"yX c black",
/* pixels */
"tXtXtXtXtXtXtXtXtXtXtXtXtXtXtXtXyXyXyXyXyX6XyXyXyXyXyXyXtXtXtXtXtXtXtXtXtXtXtXtXtXtX>XtXtXtXtXtXtXtXtXtXyXyXyXyXyXyXyXyXyXyXyXyX",
"tXtXtXtXtXtXtXtXtXtXtXtXtXtXtXtXyXyXyXyXH.7XeXyXyXyXyXyXtXtXtX%XqXtXtXtXtXtXtXtXtXG.7XeXtXtXtXtXtXtXtXtXyXyXyXyXyXyXyXyXyXyXyXyX",
"tXtXtXtXtXtXtXtXtXtXtXtXtXtXtXtXyXyXyX8.}.6X0XeXyXyXyXyXtXtXv.>X7XeXtXtXtXtXtXtXr.!.7X0XeXtXtXtXtXtXtXtXyXyXyXyXyXyXyXyXyXyXyXyX",
"tXtXtXtXtXtXtXtXtXtXtXtXtXtXtXtXyXyXyX5.*X3X1X0XyXyXyXyXtX1.).1X1X7X0XtXtXtXtXtX5.*X2X2X0XtXtXtXtXtXtXtXyXyXyXyXyXyXyXyXyXyXyXyX",
"tXtXtXtXtXtXtXtXtXtXtXtXtXtXtXtXtXtXX.J.,X;X,X7X0XyXtXtX1.<.=X,X,X1X8X8XtXtXtX;.S.>X>X>X7XqXtXtXtXtXtXtXtXtXyXyXtXtXtXtXyXyXyXyX",
"tXtXtXtXtXtXtXtXtXtXtXtXtXtXtXtXtX| ;..X*X&X*X,X7X6XtX| X.D.;X*X*X;X2X7X1XtX..;..X,X;X,X>X8X0XtXtXtXtXtXtXtXyXyXtXtXtXtXyXyXyXyX",
"tXtXtXtXtXZ.^..X>XtXtXtXtXtXtXtXY I v.%X%X%X%X%X>X>XD.I 1.'.#X&X=X%X*X1X*Xw.| x.&X&X*X*X*X>X7X7XtXtXtXtXtXtXtX2X8XeXqXtXyXyXyXyX",
"tXtXtXtXtXC.<.x.Z.(.%X,X>X;XtX1.I Y ^..X|.|.|.|.%X*XF.I 5.$XOXOX.X.X.X*X%X>.Y J..X.X.X.X.X=X>X1X,XtX@X%X;X1X7X0XeXeX;XyXyXyXyXyX",
"tXtXtXtXtXI.a.>.<.x.v.Z.^.}.).>.J P &.&.&.>.&.&.,.q. .L  .,.>.,.>.q.,.q.q._ ! >.q.q.q.,.q.q.a.V.S.).%X<X7X0XqX0XqX;X(.yXyXyXyXyX",
"tXtXtXtXtXtXC.<.;.<.x.x.;.I b h d f a a a a a a s a a a a f g d h d h a a f a d d a a a d d h h C Q N.&X7X8X8X8X1X(.yXyXyXyXyXyX",
"tXtXtXtXtXtXL.f.;.1.;.I s 8 7 a j j j b B B h a p a 8 a a a 8 d 8 a a 8 8 8 a 7 p s j B Z N x N k a B +.].2X2X2X}.J.yXyXyXyXyXyX",
"tXtXtXtXtXtXL.l.,.X.L 5 6 6 b q.G.Y.R._.'.'.E.a.B 8 8 8 8 8 8 7 8 8 8 7 8 7 6 s _ M.E.'.'._.{.OX_.&.s d  ..X,X.XS.S.yXyXyXyXyXyX",
"tXtXtXtXtXtXtXC.s.' 6 5 6 a ( u.m.B.V.V.Y.Y.[.-X'.&.j B v b b N j b j h h h S =.N.A.G.G.Y.Y.R._.#X#X-.a j >.}.S.S.yXyXyXyXyXyXyX",
"tXtXtXtXtXtXtXh.f.' 5 7 4 B ]  .%.8.%.,.9.u.a._.#X#X'._._._._.E.E.R.T.G.A.V.G.V.b.i.i.a.a.a.9.i.E.[.V.f a D b.Z.Z.yXyXyXyXyXyXyX",
"tXtXtXtXtXtXtXd.d.W 4 6 5 G ' ' o.o.9.n.V.B.M.n.N.V.V.B.B.B.m.n.M.M.M.n.n.n.a.a.u.u.n.G.G.M.a.i.A.'.G.b a B ;.v.Z.yXyXyXyXyXyXyX",
"tXtXtXtXtXtXtXtXp.l 3 5 4 W ' ' T O.M.E.[.#X[.Y.a.a.y.q.9.9.9.9.>.=.,.,.q.q.q.,.a.G.'.OXOXOXE.n.V.'.A.B a v ..v.yXyXyXyXyXyXyXyX",
"tXtXtXtXtXtXtXtX-.k 4 4 3 W [ _ ) X.G N H [ B.[.R.9.9.9.9.9.9.%.9.%.9.%.9.9.9.9.m.9.T N N ' V.G.V._.A.b a h _ Z.tXtXtXtXtXtXtXtX",
"tXtXtXtXtXtXtXL C 7 3 5 3 ^ [ ] T b B A A b j [ _.B.9.9.9.9.8.9.,.9.%.9.%.%.9.0.J i x A S H H 9.A./.V.j a d >.;X7XtXtXtXtXtXtXtX",
"tXtXtXtXtXtX! L V 7 3 4 3 W ' ] S S ( _ X.' S g 8.R.a.9.9.9.8.9.9.%.9.%.8.O.9.R u K  . .o._ T o.V./.N.j 7 f <.,X7X0XtXtXtXtXtXtX",
"tXtXtXtX>...~ I L a < 3 3 F [ ] T ) _ _ +.+. .( g B.Y.i.9.8.1.9.9.%.%.%.O.9.%.v R 9.9.9.O.8.$.O.N./.M.h a s $.%X1X8XqXeXtXtXtXtX",
"tXtXtXw.<.>.&. .( p 3 3 3 G ' ' _ _ ' o.$.#.X.' H j R.B.i.9.9.9.9.,.%.%.$.9.u i #.9.9.9.9.$.$.9.n._.m.h 8 d  .(.}.*X2X0XeXtXtXtX",
"tXtXx.u.,.&.$.#.( a 3 3 3 G ' o.o.X. .o.$. .b 7 > O T _.n.i.9.9.9.%.%.$.9.T $ @ g { 8.9.$.9.9.$.n./.N.j 8 d ..^.}.XX.X=X1X8XtXtX",
"V.M.y.>.=.=.$.+.( 8 3 4 3 ^ ' [ O.o.O.O.&.Q , .     & M.R.a.9.i.9.9.$.9.%.;     . 4 ` 9.%.$.9.$.n.R.m.h 8 d  .^.}.}..XOX%X*X;X*X",
"tX!.U.f.q.=.$.+.^ d 3 3 3 F ' [ O.O.O.$.%.b X     . . i '.E.B.f.a.i.a.c.u . X       i 8.9.9.$.$.c.R.N.h 8 d  .^.(.XX.X.X).Z.x.tX",
"tXtXtX!.I.g.r.+.( p 3 3 3 W ` o.O.o.O.O.,.f   X >.oXe.= ( OXOXE.G.E.G.T & <.|.0.O   < o.9.9.%.$.c.).N.h 8 f  .).(.J.v.$.| tXtXtX",
"tXtXtXtXQ.W.P.g.e.g 4 3 3 W [ ' O.o.o.9.u.a   s <XrXrXw.; ] E.OXOXG.K # ..8XrXeXM   ; o.u.9.%.%.n./.M.f 8 f ! <...E I I tXtXtXtX",
"tXtXtXtXyXyXl.j.k.l 3 3 3 F [  .o.o.O.9.c.u.f G :X;X7.5.q > x ' T i @ < 4.7.4XeX) 1 R 9.n.9.%.O.n.R.M.h 7 f C b M U tXtXtXtXtXtX",
"tXtXtXtXyXyX! W D 8 4 3 3 F ' ' o._ R ' &.B.T.-.$X5.3.3.e ; i d i 0 < e 2.3.6.|.R 0.n.9.9.o.O.$.n.R.c.h 7 f ! b.b.D.tXtXtXtXtXtX",
"tXtXtXtXtX! C C C 7 4 3 3 ^ ' ' o._ T T K T %.M.P.4.r o % m K D T _ K w o r 4.X.$.$._ _ o.X.O.$.n.R.N.f a a &.=X1X2X8XyXtXtXtXtX",
"tXtXtXtXX.@.@.X.( d 3 3 3 G [  .O.O.o.o. ._ T X.e.e.t - 9 X.' O.O.$.$.N q t I O.o._ $.9.%.%.$.O.n./.N.f 7 s  .(.%X3X8X0XtXtXtXtX",
"tXtXx.q.q.&.-.+.( a 3 3 3 ^ [ '  .O.O.o._ X.o._ ' &.+. .$.#.O.o.o.o.%.9.%.%.:. .X.O. . .O.9.,.$.n./.B.h 8 f  .^.(.}.%X,X8XqXtXtX",
"tXb.y.q.&.&.$.+.Q d 4 3 3 ^ ' ' _  .S v f u N R ) _  . .X.X. .O.O.o.X.X.O.O. . .X.A c f j S %.%.n.E.N.h 8 f X.^.(.}.XX.X%X,X7XtX",
"tXL.f.q.=.:.#.+.] 7 4 3 3 ^ ' ' _ I ..A.Z.>.n u N T X. .O.$.O.$.$.O.O.O.o.o._ K v J u.Z.A.) S ,.n./.N.h 8 a  .^.oX}.XXOX.X}.J.yX",
"tXtX~.W.M.y.-. .( d 4 3 3 G ' ] _ c B.<X&X Xc.<.K u u v T R X. .o.o._ R M u v R u.v. X-X<XZ.0 o.N.R.N.f 8 s  .J.(.oX).Z.<...yXyX",
"tXtXyXyXQ.W.l.t.] d 4 3 3 F [ ( ) < N.0XeX9X X@XOX^.%.M v v c 9 u v v U U 9.R.%X=X X9XeXwXN.* _ n.R.n.f 6 f X.D.v.;.| I yXyXyXyX",
"tXtXyXyXyXP.z.l.j.l 3 4 3 F ' ( T @ @ A b._./.3X9X9X:X`.%XOX].Z.m.].OX&X{.-X9X9X3X(./.u.n + % K n.R.n.f 8 d A J J J I tXyXyXyXyX",
"tXtXtXtXyXyXt.e.} g 3 3 3 F [ ] K %       . + < m ) ..:.G.`.].G.S.]./.S.:.O.I c < + .       X M n.R.n.f 8 d B C L L tXtXyXyXyXyX",
"tXtXtXtXyXyXC C C 6 4 3 3 G ` ( S +                       o . . . .                         X M n.R.n.f 6 s @.|.|.=XtXtXyXyXyXyX",
"tXtXtXtX! ~ ! ! Q a 4 3 3 G [ T M O           . X @ @ # 1 1 0 1 1 0 1 < # @ @ X             X N c.R.n.f 6 d X..X,X7X8XqXyXyXyXyX",
"tXtXtX<.>.&.&.+.Q a 3 3 3 F ` T A +   @ s | ;.D.XX@X.X^.OX&X%X`.(.=X&X@X^.XX%XXXS.;.X.c #   X A n.G.c.f 6 a _ J.(..X3X8XeXyXyXyX",
"tXv.i.q.,.=.#.@.Q d 4 3 3 F ` ( T < <.OX<X<X].}. X(.G.c.H././.G.Y./._./.n.G.(.OXOX`.2X6X&Xx.& R n.T.c.h 6 a X.J.(.oXXX%X;X7X0XyX",
"K.M.y.q.=.=.#.+.( a 3 3 3 F ' T  .c  X-XOX^.<.,.c.c.0.9.9.O._ R ( X.:.u.c.m.B.m.0.:.J.OX3XOX0 $.M.T.c.f 6 a ) J.(.oX}..X.X%X%X%X",
"tX+XW.M.y.=.#.+.( a 3 3 3 F ` G 9.M x.Z.0.%.o.$. .T b v u u u u u f f v v M R %.9.9.9.x.G.x.u c.n.T.b.h 6 a ) J.(.}.}.(.S.x.tXtX",
"tXtXyX+XQ.K.p.#.] d > 3 3 W [ S 9.G.x.i.c.%._ K S S J S T S T T I K T K T A A A M R %.c.i.9.0.G.u.R.c.s 6 a _ J.J.Z.<.X.R tXtXtX",
"tXtXtXtX+X!.Q.L.t.j 4 4 3 ^ [ H A G.'.G.9.T K T R R ) _ _ _ _ _ ' _ X._ R _ T T K N N O.B.G.G.O.9.G.m.f 6 a L 1.E J J P tXtXtXtX",
"tXtXtXtXtXtXQ.P.z.z 3 < 3 ^ [ P u u T T K T R R _ '  . . . . .'  . . . . . . ._ R T N v N S N K u.R.n.f 6 a v m M J tXtXtXtXtXtX",
"tXtXtXtXtXtXtXP.j.z 3 3 4 ^ [ T S x v S T R _ X. . .O.O. .O.O.O.O.o.o.o.$.O. . .X.R T A N j N T u.T.n.h 7 a v m M yXtXtXtXtXtXtX",
"tXtXtXtXtXtXtXtX' g 4 5 4 / [ T T T R X.' _  .o.o.o.o. . . . .o.o. . . . .O.o. .o. ._ R R _ R O.i.G.c.f 8 a D @.yXyXtXtXtXtXtXtX",
"tXtXtXtXtXtXtXtX] g 3 3 3 ` } ` ' X.X. .O.#.O.o.( T T T ( T ( ( / ] ( ` ] ] ] ` o.o.O.o.O.O. .o.9.B.,.a 8 8 O.^.tXtXtXtXtXtXtXtX",
"tXtXtXtXtXtXtX] ] B 6 6 , W } ` ] ] '  . . .o.R S A H G ^ / / ] ` ` { ` { { { { ' o.o.o. .X.' ) O.:.P 6 8 8 0..X%XtXtXtXtXtXtXtX",
"tXtXtXtXtXtXtX' ] G 7 3 : p } 8.{ ` ` ` ] ] / S f 3 3 4 4 6 6 7 7 p p p p p g } 8.} { [ ] ( ( G K c 0 6 8 8 N.&X=XtXtXtXtXtXtXtX",
"tXtXtXtXtXtXtX' ' ' k 6 : : p ^ ` / / / ^ G F g > - - * - * * * * ; : - - - * p ^ ` / / ^ F F z g 4 6 8 5 u v.OX*XtXtXtXtXtXtXtX",
"tXtXtXtXtXtXo.o.-.*.` g 3 : : : : : : : : : : : = = = : * : : : : : : : : > : * > : : : : : : : : 6 8 5 < J 4.~.*X,XtXtXtXtXtXtX",
"tXtXtXtXtXtX$.*.y.r.r.` g 3 : : : : : : : * : : : : 3 : , : : 3 : , , : : : : = : * : : : : : , 6 7 5 2 u | 1.x.XX>XtXtXtXtXtXtX",
"tXtXtXtXtXtX-.y.p.r.y.r.} z p 3 , , , : : > 3 3 5 4 5 4 4 5 4 5 5 4 5 4 4 3 : : : : : : > : 3 6 6 5 5 9 U E ..;.Z.*XtXtXtXtXtXtX",
"tXtXtXtXtX&.y.p.p.p.p.p.t.r.} ` ` F k g g g g h g 7 d z j g g g g g g d 6 g z g g d g d g d 7 i G *.*.X.E E Y 1.<.).2XtXtXtXtXtX",
"tXtXtXtXtXy.f.s.s.f.s.a.p.y.r.j.z.h.{ ) ( ( ( ( K 8 x t.r.) ] ] ( ] ( m 0 / t.#.( ( ( ) ( K c t S g.h.L.h.a.9.;.1.x..XtXtXtXtXtX",
"tXtXtXtXtXM.C.g.f.tXtXtXtXtXtXtXI.I.d.' ' ' ' ' n 9 Z t.j.-._ ] ' ' ( c 9 ` j.p. .' ' ' ' K c m tXtXtXtXtXtXtXU.n.v.S.tXtXtXtXtX",
"tXtXtXtXtXtXtXtXtXtXtXtXtXtXtXtXtXQ.U.=. . .o.] m c yXj.z.p.o.o. . .K c s tXj.l.=.[ ' o.' n m yXtXtXtXtXtXtXtXtXtXtXtXtXtXtXtXtX",
"tXtXtXtXtXtXtXtXtXtXtXtXtXtXtXtXtXtX!.f.O.#.#.K m tXyXyXz.L.-.O.O.' n m tXtXtXP.d.$.#.#.R n yXyXtXtXtXtXtXtXtXtXtXtXtXtXtXtXtXtX",
"tXtXtXtXtXtXtXtXtXtXtXtXtXtXtXtXtXtXtXI.=.-.O.U tXtXtXtXtXQ.f.$.$.( n tXtXtXtXtXI.8.$.#.J tXtXtXtXtXtXtXtXtXtXtXtXtXtXtXtXtXtXtX",
"tXtXtXtXtXtXtXtXtXtXtXtXtXtXtXtXtXtXtX+Xf.$._ M tXtXtXtXtXtXI.8.$.J tXtXtXtXtXtXQ.C.%._ U tXtXtXtXtXtXtXtXtXtXtXtXtXtXtXtXtXtXtX",
"tXtXtXtXtXtXtXtXtXtXtXtXtXtXtXtXtXtXtXtXI.9.! tXtXtXtXtXtXtXtXg.O.tXtXtXtXtXtXtXtXQ.y.) tXtXtXtXtXtXtXtXtXtXtXtXtXtXtXtXtXtXtXtX",
"tXtXtXtXtXtXtXtXtXtXtXtXtXtXtXtXtXtXtXtXtXy.tXtXtXtXtXtXtXtXtXtXtXtXtXtXtXtXtXtXtXtXa.tXtXtXtXtXtXtXtXtXtXtXtXtXtXtXtXtXtXtXtXtX"
};
